src/images/pages/vpn/btn-android.svg

<?xml version="1.0" encoding="UTF-8"?>
<svg width="216px" height="64px" viewBox="0 0 216 64" version="1.1" xmlns="http://www.w3.org/2000/svg" xmlns:xlink="http://www.w3.org/1999/xlink">
    <!-- Generator: Sketch 52.3 (67297) - http://www.bohemiancoding.com/sketch -->
    <title>btn-play store</title>
    <desc>Created with Sketch.</desc>
    <defs>
        <linearGradient x1="91.4954814%" y1="4.94615078%" x2="-38.2370848%" y2="71.8787395%" id="linearGradient-1">
            <stop stop-color="#00A0FF" offset="0%"></stop>
            <stop stop-color="#00A1FF" offset="1%"></stop>
            <stop stop-color="#00BEFF" offset="26%"></stop>
            <stop stop-color="#00D2FF" offset="51%"></stop>
            <stop stop-color="#00DFFF" offset="76%"></stop>
            <stop stop-color="#00E3FF" offset="100%"></stop>
        </linearGradient>
        <linearGradient x1="107.684729%" y1="50%" x2="-130.640394%" y2="50%" id="linearGradient-2">
            <stop stop-color="#FFE000" offset="0%"></stop>
            <stop stop-color="#FFBD00" offset="41%"></stop>
            <stop stop-color="#FFA500" offset="78%"></stop>
            <stop stop-color="#FF9C00" offset="100%"></stop>
        </linearGradient>
        <linearGradient x1="86.2709832%" y1="17.871098%" x2="-50.1798561%" y2="194.639567%" id="linearGradient-3">
            <stop stop-color="#FF3A44" offset="0%"></stop>
            <stop stop-color="#C31162" offset="100%"></stop>
        </linearGradient>
        <linearGradient x1="-18.82494%" y1="-54.0297086%" x2="42.0863309%" y2="24.9280028%" id="linearGradient-4">
            <stop stop-color="#32A071" offset="0%"></stop>
            <stop stop-color="#2DA771" offset="7%"></stop>
            <stop stop-color="#15CF74" offset="48%"></stop>
            <stop stop-color="#06E775" offset="80%"></stop>
            <stop stop-color="#00F076" offset="100%"></stop>
        </linearGradient>
    </defs>
    <g id="Vpn-page" stroke="none" stroke-width="1" fill="none" fill-rule="evenodd">
        <g id="VPN-Page" transform="translate(-652.000000, -1002.000000)">
            <g id="buttons" transform="translate(412.000000, 1002.000000)">
                <g id="btn-play-store" transform="translate(240.000000, 0.000000)">
                    <rect id="Rectangle" fill="#000000" x="0" y="0" width="216" height="64" rx="8"></rect>
                    <path d="M208,1.28 C211.711354,1.28 214.72,4.28864648 214.72,8 L214.72,56 C214.72,59.7113535 211.711354,62.72 208,62.72 L8,62.72 C4.28864648,62.72 1.28,59.7113535 1.28,56 L1.28,8 C1.28,4.28864648 4.28864648,1.28 8,1.28 L208,1.28 Z M208,0 L8,0 C3.581722,2.84217094e-15 0,3.581722 0,8 L0,56 C0,60.418278 3.581722,64 8,64 L208,64 C212.418278,64 216,60.418278 216,56 L216,8 C216,3.581722 212.418278,2.84217094e-15 208,0 Z" id="Shape" fill="#A6A6A6" fill-rule="nonzero"></path>
                    <path d="M75.872,16.384 C75.9250795,17.5696718 75.4916112,18.7255872 74.672,19.584 C73.7526746,20.5331315 72.4722918,21.0452846 71.152,20.992 C69.8249262,21.0215753 68.5448528,20.5002785 67.616,19.552 C65.6769118,17.5685193 65.6769118,14.3994807 67.616,12.416 C69.0734571,10.9918637 71.2433894,10.5818474 73.12,11.376 C73.6969629,11.6131687 74.2115846,11.9799736 74.624,12.448 L73.776,13.296 C73.1317666,12.5199209 72.1593404,12.0930021 71.152,12.144 C69.4266625,12.1559335 67.9211209,13.3171446 67.4713348,14.9828649 C67.0215486,16.6485853 67.7379673,18.4097811 69.2227957,19.2885397 C70.7076241,20.1672982 72.5962482,19.9478317 73.84,18.752 C74.3287203,18.2161637 74.6121071,17.5247 74.64,16.8 L71.152,16.8 L71.152,15.648 L75.808,15.648 C75.8444313,15.8917858 75.8658052,16.1375849 75.872,16.384 Z" id="Path" stroke="#FFFFFF" stroke-width="0.5" fill="#FFFFFF"></path>
                    <polygon id="Path" stroke="#FFFFFF" stroke-width="0.5" fill="#FFFFFF" points="83.2 12.384 78.88 12.384 78.88 15.424 82.816 15.424 82.816 16.576 78.88 16.576 78.88 19.616 83.2 19.616 83.2 20.8 77.632 20.8 77.632 11.2 83.2 11.2"></polygon>
                    <polygon id="Path" stroke="#FFFFFF" stroke-width="0.5" fill="#FFFFFF" points="88.448 20.8 87.216 20.8 87.216 12.384 84.528 12.384 84.528 11.2 91.2 11.2 91.2 12.384 88.448 12.384"></polygon>
                    <polygon id="Path" stroke="#FFFFFF" stroke-width="0.5" fill="#FFFFFF" points="95.904 20.8 95.904 11.2 97.136 11.2 97.136 20.8"></polygon>
                    <polygon id="Path" stroke="#FFFFFF" stroke-width="0.5" fill="#FFFFFF" points="102.608 20.8 101.376 20.8 101.376 12.384 98.688 12.384 98.688 11.2 105.28 11.2 105.28 12.384 102.608 12.384"></polygon>
                    <path d="M117.776,19.552 C116.842702,20.4860602 115.576421,21.0108739 114.256,21.0108739 C112.935579,21.0108739 111.669298,20.4860602 110.736,19.552 C108.858486,17.5561558 108.858486,14.4438442 110.736,12.448 C111.650387,11.4863587 112.929481,10.9572791 114.256,10.992 C115.579932,10.9710569 116.853711,11.4979382 117.776,12.448 C118.705469,13.393459 119.213269,14.6745007 119.184,16 C119.226438,17.3278302 118.716658,18.6138655 117.776,19.552 Z M111.648,18.752 C112.33648,19.4496926 113.275806,19.8424359 114.256,19.8424359 C115.236194,19.8424359 116.17552,19.4496926 116.864,18.752 C118.295444,17.1965439 118.295444,14.8034561 116.864,13.248 C116.17552,12.5503074 115.236194,12.1575641 114.256,12.1575641 C113.275806,12.1575641 112.33648,12.5503074 111.648,13.248 C110.216556,14.8034561 110.216556,17.1965439 111.648,18.752 Z" id="Shape" stroke="#FFFFFF" stroke-width="0.5" fill="#FFFFFF" fill-rule="nonzero"></path>
                    <polygon id="Path" stroke="#FFFFFF" stroke-width="0.5" fill="#FFFFFF" points="120.928 20.8 120.928 11.2 122.416 11.2 127.088 18.672 127.088 18.672 127.088 16.816 127.088 11.2 128.32 11.2 128.32 20.8 127.04 20.8 122.16 12.976 122.16 12.976 122.16 14.816 122.16 20.8"></polygon>
                    <path d="M109.024,34.8 C105.259642,34.8088469 102.215198,37.8676298 102.224038,41.6319874 C102.232878,45.396345 105.291655,48.4407955 109.056012,48.4319624 C112.82037,48.4231293 115.864826,45.3643576 115.856,41.6 C115.882357,39.782998 115.169971,38.0331356 113.882008,36.7512059 C112.594046,35.4692761 110.840858,34.765113 109.024,34.8 Z M109.024,45.728 C107.333164,45.8462484 105.741877,44.9189016 105.011234,43.3894993 C104.280591,41.8600971 104.559097,40.0394925 105.713545,38.7984608 C106.867993,37.5574292 108.663741,37.1482118 110.241901,37.7665329 C111.820061,38.384854 112.85987,39.905039 112.864,41.6 C112.916068,42.660275 112.537652,43.6966284 111.814625,44.4738833 C111.091597,45.2511382 110.085267,45.7033862 109.024,45.728 Z M94.112,34.8 C90.3476424,34.8088469 87.3031976,37.8676298 87.3120375,41.6319874 C87.3208775,45.396345 90.3796548,48.4407955 94.1440124,48.4319624 C97.90837,48.4231293 100.952826,45.3643576 100.944,41.6 C100.970357,39.782998 100.257971,38.0331356 98.9700082,36.7512059 C97.6820459,35.4692761 95.9288582,34.765113 94.112,34.8 Z M94.112,45.728 C92.4211638,45.8462484 90.8298767,44.9189016 90.0992341,43.3894993 C89.3685915,41.8600971 89.6470973,40.0394925 90.8015454,38.7984608 C91.9559935,37.5574292 93.7517406,37.1482118 95.3299005,37.7665329 C96.9080605,38.384854 97.9478702,39.905039 97.952,41.6 C98.0040685,42.660275 97.6256523,43.6966284 96.9026245,44.4738833 C96.1795968,45.2511382 95.1732674,45.7033862 94.112,45.728 Z M76.384,36.896 L76.384,39.776 L83.296,39.776 C83.1876215,41.1324861 82.6237514,42.4124711 81.696,43.408 C80.2938429,44.83658 78.351956,45.6040324 76.352,45.52 C72.1104531,45.52 68.672,42.0815469 68.672,37.84 C68.672,33.5984531 72.1104531,30.16 76.352,30.16 C78.3047161,30.1309596 80.1902326,30.8725194 81.6,32.224 L83.632,30.192 C81.705569,28.2866467 79.0931816,27.2370782 76.384,27.28 C72.5103372,27.1292464 68.8646297,29.1098748 66.8829665,32.4416913 C64.9013033,35.7735078 64.9013033,39.9224922 66.8829665,43.2543087 C68.8646297,46.5861252 72.5103372,48.5667536 76.384,48.416 C79.1523179,48.5265674 81.836076,47.4495711 83.76,45.456 C85.4401895,43.6102561 86.335461,41.182693 86.256,38.688 C86.2617269,38.0875609 86.2135334,37.48782 86.112,36.896 L76.384,36.896 Z M148.88,39.136 C148.025727,36.6227361 145.708684,34.8976849 143.056,34.8 C141.286982,34.7965413 139.595432,35.5254521 138.383007,36.8136537 C137.170582,38.1018553 136.545433,39.834437 136.656,41.6 C136.627905,44.5997111 138.577797,47.2599979 141.446816,48.1362318 C144.315835,49.0124657 147.419332,47.8955463 149.072,45.392 L146.752,43.792 C146.048267,44.9649504 144.7758,45.6772887 143.408,45.664 C141.988536,45.7226075 140.67906,44.9025958 140.112,43.6 L149.216,39.84 L148.88,39.136 Z M139.6,41.408 C139.534491,40.4040186 139.875819,39.4159215 140.547044,38.6664371 C141.218269,37.9169526 142.162898,37.4691611 143.168,37.424 C144.222025,37.3596628 145.211919,37.9334226 145.68,38.88 L139.6,41.408 Z M132.208,48 L135.2,48 L135.2,28 L132.208,28 L132.208,48 Z M127.312,36.32 L127.2,36.32 C126.295531,35.2899317 124.98673,34.7056456 123.616,34.72 C119.984235,34.8961147 117.130139,37.8919674 117.130139,41.528 C117.130139,45.1640326 119.984235,48.1598853 123.616,48.336 C124.989436,48.3635499 126.303547,47.7768931 127.2,46.736 L127.312,46.736 L127.312,47.712 C127.312,50.32 125.92,51.712 123.68,51.712 C122.149623,51.6783802 120.790959,50.7241552 120.24,49.296 L117.648,50.368 C118.629039,52.8319833 121.028136,54.4356239 123.68,54.4 C127.184,54.4 130.08,52.336 130.08,47.312 L130.08,35.2 L127.312,35.2 L127.312,36.32 Z M123.872,45.728 C121.696139,45.5923395 120.000874,43.7880863 120.000874,41.608 C120.000874,39.4279137 121.696139,37.6236605 123.872,37.488 C124.907233,37.5326749 125.880017,37.9955536 126.567679,38.7706815 C127.255341,39.5458095 127.599003,40.5668199 127.52,41.6 C127.608216,42.6368791 127.268252,43.6646898 126.579152,44.4444603 C125.890053,45.2242308 124.911857,45.6880221 123.872,45.728 Z M162.896,28 L155.728,28 L155.728,48 L158.72,48 L158.72,40.416 L162.896,40.416 C165.220294,40.5829821 167.443158,39.4376143 168.656208,37.4479568 C169.869258,35.4582992 169.869258,32.9577008 168.656208,30.9680432 C167.443158,28.9783857 165.220294,27.8330179 162.896,28 Z M162.896,37.6 L158.72,37.6 L158.72,30.784 L162.96,30.784 C164.183277,30.7839999 165.313632,31.4366107 165.925271,32.496 C166.53691,33.5553893 166.53691,34.8606107 165.925271,35.92 C165.313632,36.9793893 164.183277,37.6320001 162.96,37.632 L162.896,37.6 Z M181.36,34.736 C179.132942,34.5986796 177.037924,35.8003268 176.032,37.792 L178.672,38.896 C179.216965,37.9134768 180.288642,37.343169 181.408,37.44 C182.175245,37.3503914 182.946326,37.5727521 183.548045,38.0571363 C184.149765,38.5415205 184.531678,39.2473198 184.608,40.016 L184.608,40.208 C183.645861,39.7022668 182.574957,39.4386596 181.488,39.44 C178.64,39.44 175.728,41.04 175.728,43.952 C175.78491,45.2025301 176.346414,46.3765518 177.284199,47.2057827 C178.221983,48.0350136 179.455908,48.4485889 180.704,48.352 C182.232659,48.4365566 183.688177,47.6904507 184.512,46.4 L184.608,46.4 L184.608,48 L187.488,48 L187.488,40.304 C187.488,36.8 184.832,34.768 181.424,34.768 L181.36,34.736 Z M180.992,45.696 C180.016,45.696 178.656,45.2 178.656,44 C178.656,42.4 180.352,41.856 181.856,41.856 C182.806467,41.8325471 183.745809,42.0646198 184.576,42.528 C184.368252,44.3249669 182.864577,45.6919442 181.056,45.728 L180.992,45.696 Z M197.984,35.2 L194.56,43.872 L194.464,43.872 L190.912,35.2 L187.712,35.2 L193.04,47.328 L190,54.064 L193.12,54.064 L201.312,35.2 L197.984,35.2 Z M171.104,48 L174.08,48 L174.08,28 L171.104,28 L171.104,48 Z" id="Shape" fill="#FFFFFF" fill-rule="nonzero"></path>
                    <path d="M16.704,12.064 C16.176751,12.6873912 15.9077265,13.4887405 15.952,14.304 L15.952,49.696 C15.8975584,50.5126068 16.1678296,51.3176701 16.704,51.936 L16.816,52.064 L36.64,32.24 L36.64,31.76 L16.816,11.952 L16.704,12.064 Z" id="Path" fill="url(#linearGradient-1)"></path>
                    <path d="M43.2,38.848 L36.64,32.24 L36.64,31.76 L43.2,25.152 L43.344,25.248 L51.2,29.696 C53.44,30.96 53.44,33.04 51.2,34.32 L43.376,38.768 L43.2,38.848 Z" id="Path" fill="url(#linearGradient-2)"></path>
                    <path d="M43.392,38.752 L36.64,32 L16.704,51.936 C17.6368521,52.7663533 19.029184,52.813437 20.016,52.048 L43.392,38.752" id="Path" fill="url(#linearGradient-3)"></path>
                    <path d="M43.392,25.248 L20.016,11.968 C19.0351433,11.1915544 17.6382364,11.2320445 16.704,12.064 L36.64,32 L43.392,25.248 Z" id="Path" fill="url(#linearGradient-4)"></path>
                    <path d="M43.2,38.608 L20.016,51.808 C19.0690467,52.5226868 17.7629533,52.5226868 16.816,51.808 L16.704,51.92 L16.816,52.048 C17.7629533,52.7626868 19.0690467,52.7626868 20.016,52.048 L43.392,38.752 L43.2,38.608 Z" id="Path" fill="#000000" opacity="0.2"></path>
                    <path d="M16.704,51.712 C16.1900705,51.0773759 15.9382111,50.2702809 16,49.456 L16,49.696 C15.9455584,50.5126068 16.2158296,51.3176701 16.752,51.936 L16.864,51.824 L16.704,51.712 Z" id="Path" fill="#000000" opacity="0.12"></path>
                    <path d="M51.2,34.08 L43.2,38.608 L43.344,38.752 L51.2,34.304 C52.1446327,33.9045732 52.7952965,33.0206525 52.896,32 C52.6931331,32.9233604 52.0636186,33.6954064 51.2,34.08 Z" id="Path" fill="#000000" opacity="0.12"></path>
                    <path d="M20.016,12.192 L51.2,29.92 C52.0636186,30.3045936 52.6931331,31.0766396 52.896,32 C52.7952965,30.9793475 52.1446327,30.0954268 51.2,29.696 L20.016,11.968 C17.792,10.688 15.952,11.744 15.952,14.304 L15.952,14.544 C16,11.984 17.792,10.928 20.016,12.192 Z" id="Path" fill="#FFFFFF" opacity="0.25"></path>
                </g>
            </g>
        </g>
    </g>
</svg>

<svg width="216" height="64" xmlns="http://www.w3.org/2000/svg"><defs><linearGradient x1="91.495%" y1="4.946%" x2="-38.237%" y2="71.879%" id="a"><stop stop-color="#00A0FF" offset="0%"/><stop stop-color="#00A1FF" offset="1%"/><stop stop-color="#00BEFF" offset="26%"/><stop stop-color="#00D2FF" offset="51%"/><stop stop-color="#00DFFF" offset="76%"/><stop stop-color="#00E3FF" offset="100%"/></linearGradient><linearGradient x1="107.685%" y1="50%" x2="-130.64%" y2="50%" id="b"><stop stop-color="#FFE000" offset="0%"/><stop stop-color="#FFBD00" offset="41%"/><stop stop-color="orange" offset="78%"/><stop stop-color="#FF9C00" offset="100%"/></linearGradient><linearGradient x1="86.271%" y1="17.871%" x2="-50.18%" y2="194.64%" id="c"><stop stop-color="#FF3A44" offset="0%"/><stop stop-color="#C31162" offset="100%"/></linearGradient><linearGradient x1="-18.825%" y1="-54.03%" x2="42.086%" y2="24.928%" id="d"><stop stop-color="#32A071" offset="0%"/><stop stop-color="#2DA771" offset="7%"/><stop stop-color="#15CF74" offset="48%"/><stop stop-color="#06E775" offset="80%"/><stop stop-color="#00F076" offset="100%"/></linearGradient></defs><g fill="none" fill-rule="evenodd"><rect fill="#000" width="216" height="64" rx="8"/><path d="M208 1.28A6.72 6.72 0 0 1 214.72 8v48a6.72 6.72 0 0 1-6.72 6.72H8A6.72 6.72 0 0 1 1.28 56V8A6.72 6.72 0 0 1 8 1.28h200zM208 0H8a8 8 0 0 0-8 8v48a8 8 0 0 0 8 8h200a8 8 0 0 0 8-8V8a8 8 0 0 0-8-8z" fill="#A6A6A6" fill-rule="nonzero"/><path d="M75.872 16.384a4.352 4.352 0 0 1-1.2 3.2 4.64 4.64 0 0 1-3.52 1.408 4.8 4.8 0 0 1-3.536-1.44 5.104 5.104 0 0 1 0-7.136 5.056 5.056 0 0 1 5.504-1.04 4.064 4.064 0 0 1 1.504 1.072l-.848.848a3.2 3.2 0 0 0-2.624-1.152 3.84 3.84 0 1 0 2.688 6.608 3.072 3.072 0 0 0 .8-1.952h-3.488v-1.152h4.656a6 6 0 0 1 .064.736zM83.2 12.384h-4.32v3.04h3.936v1.152H78.88v3.04h4.32V20.8h-5.568v-9.6H83.2zM88.448 20.8h-1.232v-8.416h-2.688V11.2H91.2v1.184h-2.752zM95.904 20.8v-9.6h1.232v9.6zM102.608 20.8h-1.232v-8.416h-2.688V11.2h6.592v1.184h-2.672z" stroke="#FFF" stroke-width=".5" fill="#FFF"/><path d="M117.776 19.552a4.976 4.976 0 0 1-7.04 0 5.184 5.184 0 0 1 0-7.104 4.688 4.688 0 0 1 3.52-1.456 4.8 4.8 0 0 1 3.52 1.456A4.912 4.912 0 0 1 119.184 16a4.8 4.8 0 0 1-1.408 3.552zm-6.128-.8a3.664 3.664 0 0 0 5.216 0 4.064 4.064 0 0 0 0-5.504 3.664 3.664 0 0 0-5.216 0 4.064 4.064 0 0 0 0 5.504z" stroke="#FFF" stroke-width=".5" fill="#FFF" fill-rule="nonzero"/><path stroke="#FFF" stroke-width=".5" fill="#FFF" d="M120.928 20.8v-9.6h1.488l4.672 7.472h0V11.2h1.232v9.6h-1.28l-4.88-7.824h0V20.8z"/><path d="M109.024 34.8a6.816 6.816 0 1 0 6.832 6.8 6.704 6.704 0 0 0-6.832-6.8zm0 10.928a4.128 4.128 0 1 1 3.84-4.128 3.936 3.936 0 0 1-3.84 4.128zM94.112 34.8a6.816 6.816 0 1 0 6.832 6.8 6.704 6.704 0 0 0-6.832-6.8zm0 10.928a4.128 4.128 0 1 1 3.84-4.128 3.936 3.936 0 0 1-3.84 4.128zm-17.728-8.832v2.88h6.912a6.032 6.032 0 0 1-1.6 3.632 7.072 7.072 0 0 1-5.344 2.112 7.68 7.68 0 1 1 0-15.36 7.424 7.424 0 0 1 5.248 2.064l2.032-2.032a10.08 10.08 0 0 0-7.248-2.912 10.576 10.576 0 1 0 0 21.136 9.712 9.712 0 0 0 7.376-2.96 9.6 9.6 0 0 0 2.496-6.768c.006-.6-.042-1.2-.144-1.792h-9.728zm72.496 2.24a6.4 6.4 0 0 0-5.824-4.336 6.4 6.4 0 0 0-6.4 6.8 6.768 6.768 0 0 0 12.416 3.792l-2.32-1.6a3.856 3.856 0 0 1-3.344 1.872 3.44 3.44 0 0 1-3.296-2.064l9.104-3.76-.336-.704zm-9.28 2.272a3.744 3.744 0 0 1 3.568-3.984 2.624 2.624 0 0 1 2.512 1.456l-6.08 2.528zM132.208 48h2.992V28h-2.992v20zm-4.896-11.68h-.112a4.704 4.704 0 0 0-3.584-1.6 6.816 6.816 0 0 0 0 13.616 4.608 4.608 0 0 0 3.584-1.6h.112v.976c0 2.608-1.392 4-3.632 4a3.776 3.776 0 0 1-3.44-2.416l-2.592 1.072a6.4 6.4 0 0 0 6.032 4.032c3.504 0 6.4-2.064 6.4-7.088V35.2h-2.768v1.12zm-3.44 9.408a4.128 4.128 0 0 1 0-8.24 3.824 3.824 0 0 1 3.648 4.112 3.808 3.808 0 0 1-3.648 4.128zM162.896 28h-7.168v20h2.992v-7.584h4.176a6.224 6.224 0 1 0 0-12.416zm0 9.6h-4.176v-6.816h4.24a3.424 3.424 0 0 1 0 6.848l-.064-.032zm18.464-2.864a5.584 5.584 0 0 0-5.328 3.056l2.64 1.104a2.848 2.848 0 0 1 2.736-1.456 2.88 2.88 0 0 1 3.2 2.576v.192a6.688 6.688 0 0 0-3.12-.768c-2.848 0-5.76 1.6-5.76 4.512a4.624 4.624 0 0 0 4.976 4.4 4.24 4.24 0 0 0 3.808-1.952h.096V48h2.88v-7.696c0-3.504-2.656-5.536-6.064-5.536l-.064-.032zm-.368 10.96c-.976 0-2.336-.496-2.336-1.696 0-1.6 1.696-2.144 3.2-2.144.95-.023 1.89.209 2.72.672a3.616 3.616 0 0 1-3.52 3.2l-.064-.032zM197.984 35.2l-3.424 8.672h-.096l-3.552-8.672h-3.2l5.328 12.128-3.04 6.736h3.12l8.192-18.864h-3.328zM171.104 48h2.976V28h-2.976v20z" fill="#FFF" fill-rule="nonzero"/><path d="M16.704 12.064a3.2 3.2 0 0 0-.752 2.24v35.392a3.104 3.104 0 0 0 .752 2.24l.112.128L36.64 32.24v-.48L16.816 11.952l-.112.112z" fill="url(#a)"/><path d="M43.2 38.848l-6.56-6.608v-.48l6.56-6.608.144.096 7.856 4.448c2.24 1.264 2.24 3.344 0 4.624l-7.824 4.448-.176.08z" fill="url(#b)"/><path d="M43.392 38.752L36.64 32 16.704 51.936c.933.83 2.325.877 3.312.112l23.376-13.296" fill="url(#c)"/><path d="M43.392 25.248l-23.376-13.28a2.576 2.576 0 0 0-3.312.096L36.64 32l6.752-6.752z" fill="url(#d)"/><path d="M43.2 38.608l-23.184 13.2a2.656 2.656 0 0 1-3.2 0l-.112.112.112.128a2.656 2.656 0 0 0 3.2 0l23.376-13.296-.192-.144z" fill="#000" opacity=".2"/><path d="M16.704 51.712A3.2 3.2 0 0 1 16 49.456v.24a3.104 3.104 0 0 0 .752 2.24l.112-.112-.16-.112zM51.2 34.08l-8 4.528.144.144 7.856-4.448A2.8 2.8 0 0 0 52.896 32a2.976 2.976 0 0 1-1.696 2.08z" fill="#000" opacity=".12"/><path d="M20.016 12.192L51.2 29.92A2.976 2.976 0 0 1 52.896 32a2.8 2.8 0 0 0-1.696-2.304L20.016 11.968c-2.224-1.28-4.064-.224-4.064 2.336v.24c.048-2.56 1.84-3.616 4.064-2.352z" fill="#FFF" opacity=".25"/></g></svg>
